brandFactory_export/3.Masa/Metro _3Masa.svg

<?xml version="1.0" encoding="UTF-8"?>
<svg width="24px" height="24px" viewBox="0 0 24 24" version="1.1" xmlns="http://www.w3.org/2000/svg" xmlns:xlink="http://www.w3.org/1999/xlink">
    <title>3.Masa/Metro _3Masa</title>
    <g id="Symbols" stroke="none" stroke-width="1" fill="none" fill-rule="evenodd">
        <g id="3.Masa/Metro-_3Masa" fill="#5CB615" fill-rule="nonzero">
            <path d="M21.4554622,10.4739496 C21.2571429,10.1915966 21.0252101,9.9092437 20.7462185,9.62352941 C18.1008403,6.92436975 15.7478992,5.98319328 14.3865546,5.65378151 L14.3865546,10.4739496 L21.4554622,10.4739496 Z M19.9193277,15.7579832 C20.1882353,15.5764706 20.6117647,15.2571429 21.0218487,14.8403361 L1.44537815,14.8403361 L1.44537815,15.902521 C14.0504202,15.902521 18.1579832,15.9226891 19.3445378,15.9327731 L19.3546218,15.9327731 C19.5563025,15.9327731 19.7478992,15.8756303 19.9193277,15.7579832 Z M1.44537815,10.3932773 L3.8487395,10.3932773 L3.8487395,6.97478992 L1.44537815,6.97478992 L1.44537815,10.3932773 Z M5.51596639,10.3932773 L8.10084034,10.3932773 L8.10084034,6.97478992 L5.51596639,6.97478992 L5.51596639,10.3932773 Z M9.61344538,10.3932773 L12.2016807,10.3932773 L12.2016807,6.97478992 L9.61344538,6.97478992 L9.61344538,10.3932773 Z M0.211764706,17.1630252 C0.0773109244,17.0252101 0,16.8369748 0,16.6420168 L0,4.74285714 C0,4.33613445 0.322689076,4.00336134 0.722689076,4.00336134 L13.1226891,4.00336134 C13.2605042,4 17.189916,3.90252101 21.7647059,8.57815126 C23.1260504,9.9697479 23.7445378,11.4084034 23.6,12.8504202 C23.394958,14.9042017 21.7008403,16.3260504 20.712605,16.9915966 C20.3058824,17.2638655 19.8352941,17.4084034 19.3546218,17.4084034 L19.3344538,17.4084034 C18.1243697,17.3983193 13.8890756,17.3781513 0.722689076,17.3781513 C0.531092437,17.3781513 0.349579832,17.3008403 0.211764706,17.1630252 Z M22.897479,18.2789916 C23.297479,18.2789916 23.6201681,18.6084034 23.6201681,19.0184874 C23.6201681,19.4285714 23.297479,19.7579832 22.897479,19.7579832 L0.722689076,19.7579832 C0.322689076,19.7579832 0,19.4285714 0,19.0184874 C0,18.6084034 0.322689076,18.2789916 0.722689076,18.2789916 L22.897479,18.2789916 L22.897479,18.2789916 Z" id="Metro-_3Masa"></path>
        </g>
    </g>
</svg>

<svg width="24" height="24" viewBox="0 0 24 24" xmlns="http://www.w3.org/2000/svg"><path d="M21.455 10.474a6.837 6.837 0 00-.709-.85c-2.645-2.7-4.998-3.64-6.36-3.97v4.82h7.07zm-1.536 5.284c.27-.182.693-.5 1.103-.918H1.445v1.063c12.605 0 16.713.02 17.9.03h.01a.983.983 0 00.564-.175zM1.445 10.393H3.85V6.975H1.445v3.418zm4.071 0h2.585V6.975H5.516v3.418zm4.097 0h2.589V6.975H9.613v3.418zm-9.401 6.77A.75.75 0 010 16.642v-11.9c0-.406.323-.739.723-.739h12.4c.138-.003 4.067-.1 8.642 4.575 1.361 1.392 1.98 2.83 1.835 4.272-.205 2.054-1.9 3.476-2.887 4.142a2.438 2.438 0 01-1.358.416h-.02c-1.21-.01-5.446-.03-18.612-.03a.72.72 0 01-.511-.215zm22.685 1.116c.4 0 .723.33.723.74a.73.73 0 01-.723.739H.723a.73.73 0 01-.723-.74c0-.41.323-.739.723-.739h22.174z" fill="#5CB615" fill-rule="nonzero"/></svg>
